(Created with emc2b post processor 2014/08/28 14:22)
(tool change to 3 mm Fraise à rainurer)
T1 M06 G43
G17 G90 G21
G00 Z10 S7000 M03
X59.5 Y187.5
Z2
G01 Z-0.533 F100
X59.5 Y172.5 F500
X50.5 Y172.5
X50.5 Y187.5
X59.5 Y187.5
X58.5 Y186.5
X58.5 Y173.5
X51.5 Y173.5
X51.5 Y186.5
X58.5 Y186.5
X57.5 Y185.5
X57.5 Y174.5
X52.5 Y174.5
X52.5 Y185.5
X57.5 Y185.5
X56.5 Y184.5
X56.5 Y175.5
X53.5 Y175.5
X53.5 Y184.5
X56.5 Y184.5
X55.5 Y183.5
X55.5 Y176.5
X54.5 Y176.5
X54.5 Y183.5
X55.5 Y183.5
G00 Z10
X59.5 Y187.5
Z1.466
G01 Z-1.066 F100
X59.5 Y172.5 F500
X50.5 Y172.5
X50.5 Y187.5
X59.5 Y187.5
X58.5 Y186.5
X58.5 Y173.5
X51.5 Y173.5
X51.5 Y186.5
X58.5 Y186.5
X57.5 Y185.5
X57.5 Y174.5
X52.5 Y174.5
X52.5 Y185.5
X57.5 Y185.5
X56.5 Y184.5
X56.5 Y175.5
X53.5 Y175.5
X53.5 Y184.5
X56.5 Y184.5
X55.5 Y183.5
X55.5 Y176.5
X54.5 Y176.5
X54.5 Y183.5
X55.5 Y183.5
G00 Z10
X59.5 Y187.5
Z0.933
G01 Z-1.6 F100
X59.5 Y172.5 F500
X50.5 Y172.5
X50.5 Y187.5
X59.5 Y187.5
X58.5 Y186.5
X58.5 Y173.5
X51.5 Y173.5
X51.5 Y186.5
X58.5 Y186.5
X57.5 Y185.5
X57.5 Y174.5
X52.5 Y174.5
X52.5 Y185.5
X57.5 Y185.5
X56.5 Y184.5
X56.5 Y175.5
X53.5 Y175.5
X53.5 Y184.5
X56.5 Y184.5
X55.5 Y183.5
X55.5 Y176.5
X54.5 Y176.5
X54.5 Y183.5
X55.5 Y183.5
G00 Z10
X69.5 Y73.5 S7000 M03
Z2
G01 Z-0.533 F100
X69.5 Y58.5 F500
X60.5 Y58.5
X60.5 Y73.5
X69.5 Y73.5
X68.5 Y72.5
X68.5 Y59.5
X61.5 Y59.5
X61.5 Y72.5
X68.5 Y72.5
X67.5 Y71.5
X67.5 Y60.5
X62.5 Y60.5
X62.5 Y71.5
X67.5 Y71.5
X66.5 Y70.5
X66.5 Y61.5
X63.5 Y61.5
X63.5 Y70.5
X66.5 Y70.5
X65.5 Y69.5
X65.5 Y62.5
X64.5 Y62.5
X64.5 Y69.5
X65.5 Y69.5
G00 Z10
X69.5 Y73.5
Z1.466
G01 Z-1.066 F100
X69.5 Y58.5 F500
X60.5 Y58.5
X60.5 Y73.5
X69.5 Y73.5
X68.5 Y72.5
X68.5 Y59.5
X61.5 Y59.5
X61.5 Y72.5
X68.5 Y72.5
X67.5 Y71.5
X67.5 Y60.5
X62.5 Y60.5
X62.5 Y71.5
X67.5 Y71.5
X66.5 Y70.5
X66.5 Y61.5
X63.5 Y61.5
X63.5 Y70.5
X66.5 Y70.5
X65.5 Y69.5
X65.5 Y62.5
X64.5 Y62.5
X64.5 Y69.5
X65.5 Y69.5
G00 Z10
X69.5 Y73.5
Z0.933
G01 Z-1.6 F100
X69.5 Y58.5 F500
X60.5 Y58.5
X60.5 Y73.5
X69.5 Y73.5
X68.5 Y72.5
X68.5 Y59.5
X61.5 Y59.5
X61.5 Y72.5
X68.5 Y72.5
X67.5 Y71.5
X67.5 Y60.5
X62.5 Y60.5
X62.5 Y71.5
X67.5 Y71.5
X66.5 Y70.5
X66.5 Y61.5
X63.5 Y61.5
X63.5 Y70.5
X66.5 Y70.5
X65.5 Y69.5
X65.5 Y62.5
X64.5 Y62.5
X64.5 Y69.5
X65.5 Y69.5
G00 Z10
X133.5 Y73.5 S7000 M03
Z2
G01 Z-0.533 F100
X133.5 Y58.5 F500
X124.5 Y58.5
X124.5 Y73.5
X133.5 Y73.5
X132.5 Y72.5
X132.5 Y59.5
X125.5 Y59.5
X125.5 Y72.5
X132.5 Y72.5
X131.5 Y71.5
X131.5 Y60.5
X126.5 Y60.5
X126.5 Y71.5
X131.5 Y71.5
X130.5 Y70.5
X130.5 Y61.5
X127.5 Y61.5
X127.5 Y70.5
X130.5 Y70.5
X129.5 Y69.5
X129.5 Y62.5
X128.5 Y62.5
X128.5 Y69.5
X129.5 Y69.5
G00 Z10
X133.5 Y73.5
Z1.466
G01 Z-1.066 F100
X133.5 Y58.5 F500
X124.5 Y58.5
X124.5 Y73.5
X133.5 Y73.5
X132.5 Y72.5
X132.5 Y59.5
X125.5 Y59.5
X125.5 Y72.5
X132.5 Y72.5
X131.5 Y71.5
X131.5 Y60.5
X126.5 Y60.5
X126.5 Y71.5
X131.5 Y71.5
X130.5 Y70.5
X130.5 Y61.5
X127.5 Y61.5
X127.5 Y70.5
X130.5 Y70.5
X129.5 Y69.5
X129.5 Y62.5
X128.5 Y62.5
X128.5 Y69.5
X129.5 Y69.5
G00 Z10
X133.5 Y73.5
Z0.933
G01 Z-1.6 F100
X133.5 Y58.5 F500
X124.5 Y58.5
X124.5 Y73.5
X133.5 Y73.5
X132.5 Y72.5
X132.5 Y59.5
X125.5 Y59.5
X125.5 Y72.5
X132.5 Y72.5
X131.5 Y71.5
X131.5 Y60.5
X126.5 Y60.5
X126.5 Y71.5
X131.5 Y71.5
X130.5 Y70.5
X130.5 Y61.5
X127.5 Y61.5
X127.5 Y70.5
X130.5 Y70.5
X129.5 Y69.5
X129.5 Y62.5
X128.5 Y62.5
X128.5 Y69.5
X129.5 Y69.5
G00 Z10
X126.877 Y212.484 S7000 M03
Z2
G01 Z-0.533 F100
X137.484 Y201.877 F500
X131.12 Y195.514
X120.514 Y206.12
X126.877 Y212.484
X126.876 Y211.069
X136.069 Y201.877
X131.12 Y196.928
X121.927 Y206.12
X126.876 Y211.069
X126.875 Y209.653
X134.653 Y201.876
X131.119 Y198.341
X123.341 Y206.119
X126.875 Y209.653
X126.874 Y208.237
X133.237 Y201.875
X131.117 Y199.755
X124.754 Y206.117
X126.874 Y208.237
X126.873 Y206.821
X131.821 Y201.874
X131.115 Y201.168
X126.168 Y206.116
X126.873 Y206.821
G00 Z10
X126.877 Y212.484
Z1.466
G01 Z-1.066 F100
X137.484 Y201.877 F500
X131.12 Y195.514
X120.514 Y206.12
X126.877 Y212.484
X126.876 Y211.069
X136.069 Y201.877
X131.12 Y196.928
X121.927 Y206.12
X126.876 Y211.069
X126.875 Y209.653
X134.653 Y201.876
X131.119 Y198.341
X123.341 Y206.119
X126.875 Y209.653
X126.874 Y208.237
X133.237 Y201.875
X131.117 Y199.755
X124.754 Y206.117
X126.874 Y208.237
X126.873 Y206.821
X131.821 Y201.874
X131.115 Y201.168
X126.168 Y206.116
X126.873 Y206.821
G00 Z10
X126.877 Y212.484
Z0.933
G01 Z-1.6 F100
X137.484 Y201.877 F500
X131.12 Y195.514
X120.514 Y206.12
X126.877 Y212.484
X126.876 Y211.069
X136.069 Y201.877
X131.12 Y196.928
X121.927 Y206.12
X126.876 Y211.069
X126.875 Y209.653
X134.653 Y201.876
X131.119 Y198.341
X123.341 Y206.119
X126.875 Y209.653
X126.874 Y208.237
X133.237 Y201.875
X131.117 Y199.755
X124.754 Y206.117
X126.874 Y208.237
X126.873 Y206.821
X131.821 Y201.874
X131.115 Y201.168
X126.168 Y206.116
X126.873 Y206.821
G00 Z10
(Esquisse 0)
X130.767 Y67.767 S7000 M03
Z2
G01 Z-1.25 F100
G02 X131.5 Y66 I-1.767 J-1.767 F500
X129 Y63.5 I-2.5 J0
X126.5 Y66 I0 J2.5
X129 Y68.5 I2.5 J0
X130.767 Y67.767 I0 J-2.5
G01 Z-2.5 F100
G02 X131.5 Y66 I-1.767 J-1.767 F500
X129 Y63.5 I-2.5 J0
X126.5 Y66 I0 J2.5
X129 Y68.5 I2.5 J0
X130.767 Y67.767 I0 J-2.5
G01 Z-3.75 F100
G02 X131.5 Y66 I-1.767 J-1.767 F500
X129 Y63.5 I-2.5 J0
X126.5 Y66 I0 J2.5
X129 Y68.5 I2.5 J0
X130.767 Y67.767 I0 J-2.5
G01 Z-5 F100
G02 X131.5 Y66 I-1.767 J-1.767 F500
X129 Y63.5 I-2.5 J0
X126.5 Y66 I0 J2.5
X129 Y68.5 I2.5 J0
X130.767 Y67.767 I0 J-2.5
G00 Z10
(Esquisse 0)
G90 X130.767 Y205.767
Z2
G01 Z-1.25 F100
G02 X131.5 Y204 I-1.767 J-1.767 F500
X129 Y201.5 I-2.5 J0
X126.5 Y204 I0 J2.5
X129 Y206.5 I2.5 J0
X130.767 Y205.767 I0 J-2.5
G01 Z-2.5 F100
G02 X131.5 Y204 I-1.767 J-1.767 F500
X129 Y201.5 I-2.5 J0
X126.5 Y204 I0 J2.5
X129 Y206.5 I2.5 J0
X130.767 Y205.767 I0 J-2.5
G01 Z-3.75 F100
G02 X131.5 Y204 I-1.767 J-1.767 F500
X129 Y201.5 I-2.5 J0
X126.5 Y204 I0 J2.5
X129 Y206.5 I2.5 J0
X130.767 Y205.767 I0 J-2.5
G01 Z-5 F100
G02 X131.5 Y204 I-1.767 J-1.767 F500
X129 Y201.5 I-2.5 J0
X126.5 Y204 I0 J2.5
X129 Y206.5 I2.5 J0
X130.767 Y205.767 I0 J-2.5
G00 Z10
(Esquisse 0)
G90 X56.767 Y181.767
Z2
G01 Z-1.25 F100
G02 X57.5 Y180 I-1.767 J-1.767 F500
X55 Y177.5 I-2.5 J0
X52.5 Y180 I0 J2.5
X55 Y182.5 I2.5 J0
X56.767 Y181.767 I0 J-2.5
G01 Z-2.5 F100
G02 X57.5 Y180 I-1.767 J-1.767 F500
X55 Y177.5 I-2.5 J0
X52.5 Y180 I0 J2.5
X55 Y182.5 I2.5 J0
X56.767 Y181.767 I0 J-2.5
G01 Z-3.75 F100
G02 X57.5 Y180 I-1.767 J-1.767 F500
X55 Y177.5 I-2.5 J0
X52.5 Y180 I0 J2.5
X55 Y182.5 I2.5 J0
X56.767 Y181.767 I0 J-2.5
G01 Z-5 F100
G02 X57.5 Y180 I-1.767 J-1.767 F500
X55 Y177.5 I-2.5 J0
X52.5 Y180 I0 J2.5
X55 Y182.5 I2.5 J0
X56.767 Y181.767 I0 J-2.5
G00 Z10
(Esquisse 0)
G90 X66.767 Y67.767
Z2
G01 Z-1.25 F100
G02 X67.5 Y66 I-1.767 J-1.767 F500
X65 Y63.5 I-2.5 J0
X62.5 Y66 I0 J2.5
X65 Y68.5 I2.5 J0
X66.767 Y67.767 I0 J-2.5
G01 Z-2.5 F100
G02 X67.5 Y66 I-1.767 J-1.767 F500
X65 Y63.5 I-2.5 J0
X62.5 Y66 I0 J2.5
X65 Y68.5 I2.5 J0
X66.767 Y67.767 I0 J-2.5
G01 Z-3.75 F100
G02 X67.5 Y66 I-1.767 J-1.767 F500
X65 Y63.5 I-2.5 J0
X62.5 Y66 I0 J2.5
X65 Y68.5 I2.5 J0
X66.767 Y67.767 I0 J-2.5
G01 Z-5 F100
G02 X67.5 Y66 I-1.767 J-1.767 F500
X65 Y63.5 I-2.5 J0
X62.5 Y66 I0 J2.5
X65 Y68.5 I2.5 J0
X66.767 Y67.767 I0 J-2.5
G00 Z10
T0 M06 M02
