(Created with emc2b post processor 2014/08/28 15:14)
(tool change to 3 mm Fraise à rainurer)
T1 M06 G43
G17 G90 G21
(ENTITIES ext_piece)
G00 X42.5 Y135 S7000 M03
Z2
G01 Z-0.18 F100
X42.5 Y45 F500
G03 X44 Y43.5 I1.5 J0
G01 X140 Y43.5
G03 X141.5 Y45 I0 J1.5
G01 X141.5 Y225
G03 X140 Y226.5 I-1.5 J0
G01 X44 Y226.5
G03 X42.5 Y225 I0 J-1.5
G01 X42.5 Y135
Z-0.36 F100
X42.5 Y45 F500
G03 X44 Y43.5 I1.5 J0
G01 X140 Y43.5
G03 X141.5 Y45 I0 J1.5
G01 X141.5 Y225
G03 X140 Y226.5 I-1.5 J0
G01 X44 Y226.5
G03 X42.5 Y225 I0 J-1.5
G01 X42.5 Y135
Z-0.54 F100
X42.5 Y45 F500
G03 X44 Y43.5 I1.5 J0
G01 X140 Y43.5
G03 X141.5 Y45 I0 J1.5
G01 X141.5 Y225
G03 X140 Y226.5 I-1.5 J0
G01 X44 Y226.5
G03 X42.5 Y225 I0 J-1.5
G01 X42.5 Y135
Z-0.72 F100
X42.5 Y45 F500
G03 X44 Y43.5 I1.5 J0
G01 X140 Y43.5
G03 X141.5 Y45 I0 J1.5
G01 X141.5 Y225
G03 X140 Y226.5 I-1.5 J0
G01 X44 Y226.5
G03 X42.5 Y225 I0 J-1.5
G01 X42.5 Y135
Z-0.9 F100
X42.5 Y45 F500
G03 X44 Y43.5 I1.5 J0
G01 X140 Y43.5
G03 X141.5 Y45 I0 J1.5
G01 X141.5 Y225
G03 X140 Y226.5 I-1.5 J0
G01 X44 Y226.5
G03 X42.5 Y225 I0 J-1.5
G01 X42.5 Y135
G00 Z10
T0 M06 M02
