(Created with emc2b post processor 2014/08/28 15:09)
(tool change to 3 mm Fraise à rainurer)
T1 M06 G43
G17 G90 G21
(ENTITIES ext_piece)
G00 X47 Y42.5 S7000 M03
Z2
G01 Z-2 F100
G02 X47 Y43.5 I0 J0.5 F500
G01 X140 Y43.5
G03 X141.5 Y45 I0 J1.5
G01 X141.5 Y225
G03 X140 Y226.5 I-1.5 J0
G01 X44 Y226.5
G03 X42.5 Y225 I0 J-1.5
G01 X42.5 Y45
G03 X44 Y43.5 I1.5 J0
G01 X47 Y43.5
G02 X47 Y42.5 I0 J-0.5
G01 Z-4 F100
G02 X47 Y43.5 I0 J0.5 F500
G01 X140 Y43.5
G03 X141.5 Y45 I0 J1.5
G01 X141.5 Y225
G03 X140 Y226.5 I-1.5 J0
G01 X44 Y226.5
G03 X42.5 Y225 I0 J-1.5
G01 X42.5 Y45
G03 X44 Y43.5 I1.5 J0
G01 X47 Y43.5
G02 X47 Y42.5 I0 J-0.5
G01 Z-6 F100
G02 X47 Y43.5 I0 J0.5 F500
G01 X140 Y43.5
G03 X141.5 Y45 I0 J1.5
G01 X141.5 Y225
G03 X140 Y226.5 I-1.5 J0
G01 X44 Y226.5
G03 X42.5 Y225 I0 J-1.5
G01 X42.5 Y45
G03 X44 Y43.5 I1.5 J0
G01 X47 Y43.5
G02 X47 Y42.5 I0 J-0.5
G01 Z-8 F100
G02 X47 Y43.5 I0 J0.5 F500
G01 X140 Y43.5
G03 X141.5 Y45 I0 J1.5
G01 X141.5 Y225
G03 X140 Y226.5 I-1.5 J0
G01 X44 Y226.5
G03 X42.5 Y225 I0 J-1.5
G01 X42.5 Y45
G03 X44 Y43.5 I1.5 J0
G01 X47 Y43.5
G02 X47 Y42.5 I0 J-0.5
G01 Z-10 F100
G02 X47 Y43.5 I0 J0.5 F500
G01 X140 Y43.5
G03 X141.5 Y45 I0 J1.5
G01 X141.5 Y225
G03 X140 Y226.5 I-1.5 J0
G01 X44 Y226.5
G03 X42.5 Y225 I0 J-1.5
G01 X42.5 Y45
G03 X44 Y43.5 I1.5 J0
G01 X47 Y43.5
G02 X47 Y42.5 I0 J-0.5
G00 Z10
T0 M06 M02
