(Created with emc2b post processor 2014/08/28 15:13)
(tool change to 3 mm Fraise à rainurer)
T1 M06 G43
G17 G90 G21
(Esquisse 0)
G00 X69.414 Y106.414 S7000 M03
Z2
G01 Z-0.18 F100
G02 X70 Y105 I-1.414 J-1.414 F500
X68 Y103 I-2 J0
X66 Y105 I0 J2
X68 Y107 I2 J0
X69.414 Y106.414 I0 J-2
G01 Z-0.36 F100
G02 X70 Y105 I-1.414 J-1.414 F500
X68 Y103 I-2 J0
X66 Y105 I0 J2
X68 Y107 I2 J0
X69.414 Y106.414 I0 J-2
G01 Z-0.54 F100
G02 X70 Y105 I-1.414 J-1.414 F500
X68 Y103 I-2 J0
X66 Y105 I0 J2
X68 Y107 I2 J0
X69.414 Y106.414 I0 J-2
G01 Z-0.72 F100
G02 X70 Y105 I-1.414 J-1.414 F500
X68 Y103 I-2 J0
X66 Y105 I0 J2
X68 Y107 I2 J0
X69.414 Y106.414 I0 J-2
G01 Z-0.9 F100
G02 X70 Y105 I-1.414 J-1.414 F500
X68 Y103 I-2 J0
X66 Y105 I0 J2
X68 Y107 I2 J0
X69.414 Y106.414 I0 J-2
G00 Z10
(Esquisse 0)
G90 X68.707 Y75.707
Z2
G01 Z-0.18 F100
G02 X69 Y75 I-0.707 J-0.707 F500
X68 Y74 I-1 J0
X67 Y75 I0 J1
X68 Y76 I1 J0
X68.707 Y75.707 I0 J-1
G01 Z-0.36 F100
G02 X69 Y75 I-0.707 J-0.707 F500
X68 Y74 I-1 J0
X67 Y75 I0 J1
X68 Y76 I1 J0
X68.707 Y75.707 I0 J-1
G01 Z-0.54 F100
G02 X69 Y75 I-0.707 J-0.707 F500
X68 Y74 I-1 J0
X67 Y75 I0 J1
X68 Y76 I1 J0
X68.707 Y75.707 I0 J-1
G01 Z-0.72 F100
G02 X69 Y75 I-0.707 J-0.707 F500
X68 Y74 I-1 J0
X67 Y75 I0 J1
X68 Y76 I1 J0
X68.707 Y75.707 I0 J-1
G01 Z-0.9 F100
G02 X69 Y75 I-0.707 J-0.707 F500
X68 Y74 I-1 J0
X67 Y75 I0 J1
X68 Y76 I1 J0
X68.707 Y75.707 I0 J-1
G00 Z10
G90
(Esquisse 0)
X118.828 Y167.828 S7000 M03
Z2
G01 Z-0.18 F100
G02 X120 Y165 I-2.828 J-2.828 F500
X116 Y161 I-4 J0
X112 Y165 I0 J4
X116 Y169 I4 J0
X118.828 Y167.828 I0 J-4
G01 Z-0.36 F100
G02 X120 Y165 I-2.828 J-2.828 F500
X116 Y161 I-4 J0
X112 Y165 I0 J4
X116 Y169 I4 J0
X118.828 Y167.828 I0 J-4
G01 Z-0.54 F100
G02 X120 Y165 I-2.828 J-2.828 F500
X116 Y161 I-4 J0
X112 Y165 I0 J4
X116 Y169 I4 J0
X118.828 Y167.828 I0 J-4
G01 Z-0.72 F100
G02 X120 Y165 I-2.828 J-2.828 F500
X116 Y161 I-4 J0
X112 Y165 I0 J4
X116 Y169 I4 J0
X118.828 Y167.828 I0 J-4
G01 Z-0.9 F100
G02 X120 Y165 I-2.828 J-2.828 F500
X116 Y161 I-4 J0
X112 Y165 I0 J4
X116 Y169 I4 J0
X118.828 Y167.828 I0 J-4
G00 Z10
(Esquisse 0)
G90 X118.828 Y197.828
Z2
G01 Z-0.18 F100
G02 X120 Y195 I-2.828 J-2.828 F500
X116 Y191 I-4 J0
X112 Y195 I0 J4
X116 Y199 I4 J0
X118.828 Y197.828 I0 J-4
G01 Z-0.36 F100
G02 X120 Y195 I-2.828 J-2.828 F500
X116 Y191 I-4 J0
X112 Y195 I0 J4
X116 Y199 I4 J0
X118.828 Y197.828 I0 J-4
G01 Z-0.54 F100
G02 X120 Y195 I-2.828 J-2.828 F500
X116 Y191 I-4 J0
X112 Y195 I0 J4
X116 Y199 I4 J0
X118.828 Y197.828 I0 J-4
G01 Z-0.72 F100
G02 X120 Y195 I-2.828 J-2.828 F500
X116 Y191 I-4 J0
X112 Y195 I0 J4
X116 Y199 I4 J0
X118.828 Y197.828 I0 J-4
G01 Z-0.9 F100
G02 X120 Y195 I-2.828 J-2.828 F500
X116 Y191 I-4 J0
X112 Y195 I0 J4
X116 Y199 I4 J0
X118.828 Y197.828 I0 J-4
G00 Z10
G90
(Esquisse 36)
X112.5 Y90 S7000 M03
Z2
G01 Z-0.18 F100
X112.5 Y97.881 F500
G02 X112.797 Y98.126 I0.25 J0
G01 X114.116 Y97.873
G03 X115.9 Y99.346 I0.283 J1.473
G01 X115.9 Y102.5
G02 X116.1 Y102.5 I0.1 J0
G01 X116.1 Y98.73
G03 X117.316 Y97.257 I1.5 J0
G01 X119.297 Y96.876
G02 X119.5 Y96.631 I-0.047 J-0.245
G01 X119.5 Y83.368
G02 X119.297 Y83.123 I-0.25 J0
G01 X117.316 Y82.742
G03 X116.1 Y81.269 I0.283 J-1.473
G01 X116.1 Y77.5
G02 X115.9 Y77.5 I-0.1 J0
G01 X115.9 Y80.653
G03 X114.116 Y82.126 I-1.5 J0
G01 X112.797 Y81.873
G02 X112.5 Y82.118 I-0.047 J0.245
G01 X112.5 Y90
Z-0.36 F100
X112.5 Y97.881 F500
G02 X112.797 Y98.126 I0.25 J0
G01 X114.116 Y97.873
G03 X115.9 Y99.346 I0.283 J1.473
G01 X115.9 Y102.5
G02 X116.1 Y102.5 I0.1 J0
G01 X116.1 Y98.73
G03 X117.316 Y97.257 I1.5 J0
G01 X119.297 Y96.876
G02 X119.5 Y96.631 I-0.047 J-0.245
G01 X119.5 Y83.368
G02 X119.297 Y83.123 I-0.25 J0
G01 X117.316 Y82.742
G03 X116.1 Y81.269 I0.283 J-1.473
G01 X116.1 Y77.5
G02 X115.9 Y77.5 I-0.1 J0
G01 X115.9 Y80.653
G03 X114.116 Y82.126 I-1.5 J0
G01 X112.797 Y81.873
G02 X112.5 Y82.118 I-0.047 J0.245
G01 X112.5 Y90
Z-0.54 F100
X112.5 Y97.881 F500
G02 X112.797 Y98.126 I0.25 J0
G01 X114.116 Y97.873
G03 X115.9 Y99.346 I0.283 J1.473
G01 X115.9 Y102.5
G02 X116.1 Y102.5 I0.1 J0
G01 X116.1 Y98.73
G03 X117.316 Y97.257 I1.5 J0
G01 X119.297 Y96.876
G02 X119.5 Y96.631 I-0.047 J-0.245
G01 X119.5 Y83.368
G02 X119.297 Y83.123 I-0.25 J0
G01 X117.316 Y82.742
G03 X116.1 Y81.269 I0.283 J-1.473
G01 X116.1 Y77.5
G02 X115.9 Y77.5 I-0.1 J0
G01 X115.9 Y80.653
G03 X114.116 Y82.126 I-1.5 J0
G01 X112.797 Y81.873
G02 X112.5 Y82.118 I-0.047 J0.245
G01 X112.5 Y90
Z-0.72 F100
X112.5 Y97.881 F500
G02 X112.797 Y98.126 I0.25 J0
G01 X114.116 Y97.873
G03 X115.9 Y99.346 I0.283 J1.473
G01 X115.9 Y102.5
G02 X116.1 Y102.5 I0.1 J0
G01 X116.1 Y98.73
G03 X117.316 Y97.257 I1.5 J0
G01 X119.297 Y96.876
G02 X119.5 Y96.631 I-0.047 J-0.245
G01 X119.5 Y83.368
G02 X119.297 Y83.123 I-0.25 J0
G01 X117.316 Y82.742
G03 X116.1 Y81.269 I0.283 J-1.473
G01 X116.1 Y77.5
G02 X115.9 Y77.5 I-0.1 J0
G01 X115.9 Y80.653
G03 X114.116 Y82.126 I-1.5 J0
G01 X112.797 Y81.873
G02 X112.5 Y82.118 I-0.047 J0.245
G01 X112.5 Y90
Z-0.9 F100
X112.5 Y97.881 F500
G02 X112.797 Y98.126 I0.25 J0
G01 X114.116 Y97.873
G03 X115.9 Y99.346 I0.283 J1.473
G01 X115.9 Y102.5
G02 X116.1 Y102.5 I0.1 J0
G01 X116.1 Y98.73
G03 X117.316 Y97.257 I1.5 J0
G01 X119.297 Y96.876
G02 X119.5 Y96.631 I-0.047 J-0.245
G01 X119.5 Y83.368
G02 X119.297 Y83.123 I-0.25 J0
G01 X117.316 Y82.742
G03 X116.1 Y81.269 I0.283 J-1.473
G01 X116.1 Y77.5
G02 X115.9 Y77.5 I-0.1 J0
G01 X115.9 Y80.653
G03 X114.116 Y82.126 I-1.5 J0
G01 X112.797 Y81.873
G02 X112.5 Y82.118 I-0.047 J0.245
G01 X112.5 Y90
G00 Z10
T0 M06 M02
