(Created with emc2b post processor 2014/08/28 15:08)
(tool change to 3 mm Fraise à rainurer)
T1 M06 G43
G17 G90 G21
(Esquisse 0)
G00 X71.181 Y108.181 S7000 M03
Z2
G01 Z-1 F100
G02 X72.5 Y105 I-3.181 J-3.181 F500
X68 Y100.5 I-4.5 J0
X63.5 Y105 I0 J4.5
X68 Y109.5 I4.5 J0
X71.181 Y108.181 I0 J-4.5
G01 Z-2 F100
G02 X72.5 Y105 I-3.181 J-3.181 F500
X68 Y100.5 I-4.5 J0
X63.5 Y105 I0 J4.5
X68 Y109.5 I4.5 J0
X71.181 Y108.181 I0 J-4.5
G01 Z-3 F100
G02 X72.5 Y105 I-3.181 J-3.181 F500
X68 Y100.5 I-4.5 J0
X63.5 Y105 I0 J4.5
X68 Y109.5 I4.5 J0
X71.181 Y108.181 I0 J-4.5
G01 Z-4 F100
G02 X72.5 Y105 I-3.181 J-3.181 F500
X68 Y100.5 I-4.5 J0
X63.5 Y105 I0 J4.5
X68 Y109.5 I4.5 J0
X71.181 Y108.181 I0 J-4.5
G01 Z-5 F100
G02 X72.5 Y105 I-3.181 J-3.181 F500
X68 Y100.5 I-4.5 J0
X63.5 Y105 I0 J4.5
X68 Y109.5 I4.5 J0
X71.181 Y108.181 I0 J-4.5
G00 Z10
(Esquisse 0)
G90 X68.707 Y75.707
Z2
G01 Z-1 F100
G02 X69 Y75 I-0.707 J-0.707 F500
X68 Y74 I-1 J0
X67 Y75 I0 J1
X68 Y76 I1 J0
X68.707 Y75.707 I0 J-1
G01 Z-2 F100
G02 X69 Y75 I-0.707 J-0.707 F500
X68 Y74 I-1 J0
X67 Y75 I0 J1
X68 Y76 I1 J0
X68.707 Y75.707 I0 J-1
G01 Z-3 F100
G02 X69 Y75 I-0.707 J-0.707 F500
X68 Y74 I-1 J0
X67 Y75 I0 J1
X68 Y76 I1 J0
X68.707 Y75.707 I0 J-1
G01 Z-4 F100
G02 X69 Y75 I-0.707 J-0.707 F500
X68 Y74 I-1 J0
X67 Y75 I0 J1
X68 Y76 I1 J0
X68.707 Y75.707 I0 J-1
G01 Z-5 F100
G02 X69 Y75 I-0.707 J-0.707 F500
X68 Y74 I-1 J0
X67 Y75 I0 J1
X68 Y76 I1 J0
X68.707 Y75.707 I0 J-1
G00 Z10
G90
(db9)
X110.5 Y90 S7000 M03
Z2
G01 Z-1 F100
X110.5 Y105.5 F500
X121.5 Y105.5
X121.5 Y74.5
X110.5 Y74.5
X110.5 Y90
Z-2 F100
X110.5 Y105.5 F500
X121.5 Y105.5
X121.5 Y74.5
X110.5 Y74.5
X110.5 Y90
Z-3 F100
X110.5 Y105.5 F500
X121.5 Y105.5
X121.5 Y74.5
X110.5 Y74.5
X110.5 Y90
Z-4 F100
X110.5 Y105.5 F500
X121.5 Y105.5
X121.5 Y74.5
X110.5 Y74.5
X110.5 Y90
Z-5 F100
X110.5 Y105.5 F500
X121.5 Y105.5
X121.5 Y74.5
X110.5 Y74.5
X110.5 Y90
G00 Z10
G90
(jack1)
X121.5 Y165 S7000 M03
Z2
G01 Z-1 F100
G02 X116 Y159.5 I-5.5 J0 F500
G03 X114.5 Y158 I0 J-1.5
G01 X114.5 Y156.4
X108.5 Y156.4
X100 Y156.4
X100 Y156.5
X108.5 Y156.5
G03 X110 Y158 I0 J1.5
G01 X110 Y172.1
G03 X108.5 Y173.6 I-1.5 J0
G01 X100 Y173.6
X108.5 Y173.6
X114.5 Y173.6
X114.5 Y172
G03 X116 Y170.5 I1.5 J0
G02 X121.5 Y165 I0 J-5.5
G01 Z-2 F100
G02 X116 Y159.5 I-5.5 J0 F500
G03 X114.5 Y158 I0 J-1.5
G01 X114.5 Y156.4
X108.5 Y156.4
X100 Y156.4
X100 Y156.5
X108.5 Y156.5
G03 X110 Y158 I0 J1.5
G01 X110 Y172.1
G03 X108.5 Y173.6 I-1.5 J0
G01 X100 Y173.6
X108.5 Y173.6
X114.5 Y173.6
X114.5 Y172
G03 X116 Y170.5 I1.5 J0
G02 X121.5 Y165 I0 J-5.5
G01 Z-3 F100
G02 X116 Y159.5 I-5.5 J0 F500
G03 X114.5 Y158 I0 J-1.5
G01 X114.5 Y156.4
X108.5 Y156.4
X100 Y156.4
X100 Y156.5
X108.5 Y156.5
G03 X110 Y158 I0 J1.5
G01 X110 Y172.1
G03 X108.5 Y173.6 I-1.5 J0
G01 X100 Y173.6
X108.5 Y173.6
X114.5 Y173.6
X114.5 Y172
G03 X116 Y170.5 I1.5 J0
G02 X121.5 Y165 I0 J-5.5
G01 Z-4 F100
G02 X116 Y159.5 I-5.5 J0 F500
G03 X114.5 Y158 I0 J-1.5
G01 X114.5 Y156.4
X108.5 Y156.4
X100 Y156.4
X100 Y156.5
X108.5 Y156.5
G03 X110 Y158 I0 J1.5
G01 X110 Y172.1
G03 X108.5 Y173.6 I-1.5 J0
G01 X100 Y173.6
X108.5 Y173.6
X114.5 Y173.6
X114.5 Y172
G03 X116 Y170.5 I1.5 J0
G02 X121.5 Y165 I0 J-5.5
G01 Z-5 F100
G02 X116 Y159.5 I-5.5 J0 F500
G03 X114.5 Y158 I0 J-1.5
G01 X114.5 Y156.4
X108.5 Y156.4
X100 Y156.4
X100 Y156.5
X108.5 Y156.5
G03 X110 Y158 I0 J1.5
G01 X110 Y172.1
G03 X108.5 Y173.6 I-1.5 J0
G01 X100 Y173.6
X108.5 Y173.6
X114.5 Y173.6
X114.5 Y172
G03 X116 Y170.5 I1.5 J0
G02 X121.5 Y165 I0 J-5.5
G00 Z10
G90
(jack2)
X121.5 Y195 S7000 M03
Z2
G01 Z-1 F100
G02 X116 Y189.5 I-5.5 J0 F500
G03 X114.5 Y188 I0 J-1.5
G01 X114.5 Y186.4
X108.5 Y186.4
X100 Y186.4
X100 Y186.5
X108.5 Y186.5
G03 X110 Y188 I0 J1.5
G01 X110 Y202.1
G03 X108.5 Y203.6 I-1.5 J0
G01 X100 Y203.6
X108.5 Y203.6
X114.5 Y203.6
X114.5 Y202
G03 X116 Y200.5 I1.5 J0
G02 X121.5 Y195 I0 J-5.5
G01 Z-2 F100
G02 X116 Y189.5 I-5.5 J0 F500
G03 X114.5 Y188 I0 J-1.5
G01 X114.5 Y186.4
X108.5 Y186.4
X100 Y186.4
X100 Y186.5
X108.5 Y186.5
G03 X110 Y188 I0 J1.5
G01 X110 Y202.1
G03 X108.5 Y203.6 I-1.5 J0
G01 X100 Y203.6
X108.5 Y203.6
X114.5 Y203.6
X114.5 Y202
G03 X116 Y200.5 I1.5 J0
G02 X121.5 Y195 I0 J-5.5
G01 Z-3 F100
G02 X116 Y189.5 I-5.5 J0 F500
G03 X114.5 Y188 I0 J-1.5
G01 X114.5 Y186.4
X108.5 Y186.4
X100 Y186.4
X100 Y186.5
X108.5 Y186.5
G03 X110 Y188 I0 J1.5
G01 X110 Y202.1
G03 X108.5 Y203.6 I-1.5 J0
G01 X100 Y203.6
X108.5 Y203.6
X114.5 Y203.6
X114.5 Y202
G03 X116 Y200.5 I1.5 J0
G02 X121.5 Y195 I0 J-5.5
G01 Z-4 F100
G02 X116 Y189.5 I-5.5 J0 F500
G03 X114.5 Y188 I0 J-1.5
G01 X114.5 Y186.4
X108.5 Y186.4
X100 Y186.4
X100 Y186.5
X108.5 Y186.5
G03 X110 Y188 I0 J1.5
G01 X110 Y202.1
G03 X108.5 Y203.6 I-1.5 J0
G01 X100 Y203.6
X108.5 Y203.6
X114.5 Y203.6
X114.5 Y202
G03 X116 Y200.5 I1.5 J0
G02 X121.5 Y195 I0 J-5.5
G01 Z-5 F100
G02 X116 Y189.5 I-5.5 J0 F500
G03 X114.5 Y188 I0 J-1.5
G01 X114.5 Y186.4
X108.5 Y186.4
X100 Y186.4
X100 Y186.5
X108.5 Y186.5
G03 X110 Y188 I0 J1.5
G01 X110 Y202.1
G03 X108.5 Y203.6 I-1.5 J0
G01 X100 Y203.6
X108.5 Y203.6
X114.5 Y203.6
X114.5 Y202
G03 X116 Y200.5 I1.5 J0
G02 X121.5 Y195 I0 J-5.5
G00 Z10
T0 M06 M02
