(Created with emc2b post processor 2014/08/29 10:00)
(tool change to 3 mm Fraise à rainurer)
T1 M06 G43
G17 G90 G21
(ENTITIES insert)
G00 X50 Y67.5 S7000 M03
Z2
G01 Z-0.2 F100
X57 Y67.5 F500
G03 X60.5 Y71 I0 J3.5
G01 X60.5 Y79
G03 X57 Y82.5 I-3.5 J0
G01 X43 Y82.5
G03 X39.5 Y79 I0 J-3.5
G01 X39.5 Y71
G03 X43 Y67.5 I3.5 J0
G01 X50 Y67.5
Z-0.4 F100
X57 Y67.5 F500
G03 X60.5 Y71 I0 J3.5
G01 X60.5 Y79
G03 X57 Y82.5 I-3.5 J0
G01 X43 Y82.5
G03 X39.5 Y79 I0 J-3.5
G01 X39.5 Y71
G03 X43 Y67.5 I3.5 J0
G01 X50 Y67.5
Z-0.6 F100
X57 Y67.5 F500
G03 X60.5 Y71 I0 J3.5
G01 X60.5 Y79
G03 X57 Y82.5 I-3.5 J0
G01 X43 Y82.5
G03 X39.5 Y79 I0 J-3.5
G01 X39.5 Y71
G03 X43 Y67.5 I3.5 J0
G01 X50 Y67.5
Z-0.8 F100
X57 Y67.5 F500
G03 X60.5 Y71 I0 J3.5
G01 X60.5 Y79
G03 X57 Y82.5 I-3.5 J0
G01 X43 Y82.5
G03 X39.5 Y79 I0 J-3.5
G01 X39.5 Y71
G03 X43 Y67.5 I3.5 J0
G01 X50 Y67.5
Z-1 F100
X57 Y67.5 F500
G03 X60.5 Y71 I0 J3.5
G01 X60.5 Y79
G03 X57 Y82.5 I-3.5 J0
G01 X43 Y82.5
G03 X39.5 Y79 I0 J-3.5
G01 X39.5 Y71
G03 X43 Y67.5 I3.5 J0
G01 X50 Y67.5
Z-1.2 F100
X57 Y67.5 F500
G03 X60.5 Y71 I0 J3.5
G01 X60.5 Y79
G03 X57 Y82.5 I-3.5 J0
G01 X43 Y82.5
G03 X39.5 Y79 I0 J-3.5
G01 X39.5 Y71
G03 X43 Y67.5 I3.5 J0
G01 X50 Y67.5
Z-1.4 F100
X57 Y67.5 F500
G03 X60.5 Y71 I0 J3.5
G01 X60.5 Y79
G03 X57 Y82.5 I-3.5 J0
G01 X43 Y82.5
G03 X39.5 Y79 I0 J-3.5
G01 X39.5 Y71
G03 X43 Y67.5 I3.5 J0
G01 X50 Y67.5
Z-1.6 F100
X57 Y67.5 F500
G03 X60.5 Y71 I0 J3.5
G01 X60.5 Y79
G03 X57 Y82.5 I-3.5 J0
G01 X43 Y82.5
G03 X39.5 Y79 I0 J-3.5
G01 X39.5 Y71
G03 X43 Y67.5 I3.5 J0
G01 X50 Y67.5
Z-1.8 F100
X57 Y67.5 F500
G03 X60.5 Y71 I0 J3.5
G01 X60.5 Y79
G03 X57 Y82.5 I-3.5 J0
G01 X43 Y82.5
G03 X39.5 Y79 I0 J-3.5
G01 X39.5 Y71
G03 X43 Y67.5 I3.5 J0
G01 X50 Y67.5
G00 Z10
T0 M06 M02
